packages/core/src/svgs/tokens/mono/MDAO.svg

<svg width="24" height="24" viewBox="0 0 24 24" fill="none" xmlns="http://www.w3.org/2000/svg">
<path fill-rule="evenodd" clip-rule="evenodd" d="M12.0045 2.00198C13.9823 1.99748 15.9167 2.58229 17.5608 3.68181C19.2048 4.78133 20.4839 6.34569 21.2352 8.17532C21.9943 10.0003 22.1941 12.0098 21.8087 13.9485C21.4235 15.8872 20.4708 17.6678 19.0716 19.0639C18.1446 19.994 17.0432 20.7319 15.8305 21.2356C14.6179 21.739 13.3176 21.9982 12.0045 21.9982C10.6915 21.9982 9.39125 21.739 8.17855 21.2356C6.96584 20.7319 5.86445 19.994 4.93753 19.0639C3.53408 17.6693 2.5781 15.8879 2.19168 13.9474C1.80527 12.007 2.00592 9.9954 2.76804 8.16945C3.26838 6.95569 4.00388 5.85291 4.9322 4.92459C5.86052 3.99627 6.96331 3.26077 8.17706 2.76042C9.40003 2.26068 10.6993 2.00198 12.0045 2.00198ZM12.0045 3.7658C10.5935 3.77756 9.27066 4.14207 8.12415 4.76529C11.2109 5.36498 13.104 4.72414 14.4268 4.11856C13.6625 3.88338 12.8512 3.75991 12.0045 3.7658ZM5.16095 7.46392C5.6686 6.70701 6.2961 6.03781 7.01883 5.48258C11.4872 6.61141 13.8624 5.44729 15.4263 4.68298H15.4322L15.6086 4.59478C16.5606 5.06688 17.4129 5.71759 18.1191 6.51147C15.3322 5.91176 13.9388 6.33509 12.3162 6.82307C10.7346 7.2993 8.92375 7.84608 5.16095 7.46392ZM12.5925 7.72261C14.274 7.21699 15.6968 6.7878 19.001 7.6991C19.3302 8.22825 19.5948 8.79854 19.8006 9.38644C16.3142 7.56387 14.4974 8.53985 12.4513 9.63337C10.5112 10.6741 8.35344 11.8382 3.95568 10.286C4.10266 9.60991 4.33783 8.96316 4.64357 8.35172C8.87671 8.84558 10.8639 8.24588 12.5807 7.7285H12.5925V7.72261ZM12.904 10.4624C14.8442 9.42169 16.5493 8.50457 20.1181 10.6447C20.1945 11.0563 20.2356 11.4795 20.2356 11.9028C19.8711 11.6677 19.4714 11.4383 19.0186 11.2561C18.2622 10.9476 17.448 10.8067 16.6319 10.8433C15.8158 10.8798 15.0174 11.0929 14.2917 11.4678C12.5866 12.2732 10.7052 13.1434 8.87671 13.5843C7.10115 14.0136 5.36672 14.0429 3.87924 13.2198L3.86748 13.2316C3.76552 12.5702 3.74578 11.8988 3.8087 11.2325C8.48867 12.8318 10.811 11.5854 12.904 10.4683V10.4624ZM18.6658 12.1322C19.242 12.3673 19.7477 12.6907 20.171 13.014C20.0908 13.6636 19.9329 14.3012 19.7006 14.9131C19.0362 14.5604 18.2367 14.2664 17.3724 14.1488C16.1535 13.9564 14.9054 14.1779 13.8271 14.7778C12.1546 15.748 10.3023 16.3681 8.38284 16.6005C7.17169 16.7062 5.95466 16.5828 4.85521 16.0713C4.55203 15.5355 4.30949 14.9676 4.13206 14.3781C5.67833 14.9836 7.37746 14.9072 9.09424 14.4956C11.0227 14.0311 12.9511 13.1434 14.6973 12.3203C15.3059 12.0039 15.9759 11.8233 16.661 11.7909C17.3461 11.7584 18.0301 11.8748 18.6658 12.1322ZM5.79004 17.3765C6.44076 18.1345 7.22365 18.7679 8.10064 19.2462C11.9986 17.0884 14.4738 17.7763 16.8021 18.4113L17.0666 18.4877C18.0005 17.7528 18.7662 16.8267 19.3126 15.7715C18.7365 15.454 18.0191 15.1835 17.2431 15.0777C16.2272 14.9153 15.1861 15.0975 14.2858 15.595C12.4975 16.6306 10.517 17.2908 8.46515 17.5353C7.56561 17.6117 6.66019 17.5764 5.78417 17.3765H5.79004ZM9.1942 19.7342C12.1339 18.3113 14.1623 18.6759 16.0318 19.1815C14.856 19.8459 13.4861 20.2281 12.0045 20.2281C11.0051 20.2281 10.0643 20.0516 9.1942 19.7342Z" fill="white"/>
</svg>

<svg xmlns="http://www.w3.org/2000/svg" width="24" height="24" fill="none" viewBox="0 0 24 24">
    <path fill="#fff" fill-rule="evenodd" d="M12.005 2.002a9.95 9.95 0 0 1 9.23 6.173 9.97 9.97 0 0 1-2.163 10.889 9.98 9.98 0 0 1-10.893 2.172 10 10 0 0 1-3.241-2.172 9.95 9.95 0 0 1-2.17-10.895 9.95 9.95 0 0 1 5.41-5.409 10.1 10.1 0 0 1 3.826-.758m0 1.764a8.25 8.25 0 0 0-3.88 1c3.086.599 4.979-.042 6.302-.647a8 8 0 0 0-2.422-.353M5.16 7.464a8.4 8.4 0 0 1 1.858-1.981c4.468 1.128 6.843-.036 8.407-.8h.006l.177-.088a8.3 8.3 0 0 1 2.51 1.916c-2.787-.6-4.18-.176-5.803.312-1.581.476-3.392 1.023-7.155.64m7.432.259c1.681-.506 3.104-.935 6.408-.024.33.53.594 1.1.8 1.687-3.487-1.822-5.304-.846-7.35.247-1.94 1.041-4.098 2.205-8.495.653a8.2 8.2 0 0 1 .688-1.934c4.233.494 6.22-.106 7.937-.623h.011zm.311 2.74c1.94-1.041 3.645-1.958 7.214.182.077.411.118.835.118 1.258a7 7 0 0 0-1.217-.647 5.65 5.65 0 0 0-4.727.212c-1.705.805-3.587 1.675-5.415 2.116-1.776.43-3.51.459-4.998-.364l-.012.012a8 8 0 0 1-.058-2c4.68 1.6 7.002.353 9.095-.764zm5.762 1.67a6.6 6.6 0 0 1 1.505.881 8.2 8.2 0 0 1-.47 1.9 7 7 0 0 0-2.329-.765 5.52 5.52 0 0 0-3.545.629A14.3 14.3 0 0 1 8.383 16.6c-1.211.106-2.428-.017-3.528-.529a8.3 8.3 0 0 1-.723-1.693c1.546.606 3.245.53 4.962.118 1.929-.465 3.857-1.353 5.603-2.176a4.74 4.74 0 0 1 3.969-.188M5.79 17.376a8.3 8.3 0 0 0 2.31 1.87c3.899-2.159 6.374-1.47 8.702-.836l.265.077a8.3 8.3 0 0 0 2.246-2.716 6 6 0 0 0-2.07-.694 4.6 4.6 0 0 0-2.957.517 15.2 15.2 0 0 1-5.82 1.94c-.9.077-1.806.041-2.682-.159zm3.404 2.357c2.94-1.423 4.968-1.058 6.838-.553a8.15 8.15 0 0 1-4.027 1.047c-1 0-1.94-.176-2.81-.494" clip-rule="evenodd"/>
</svg>
